svg/boy_0510y_positive.svg

<svg width="48" height="48" viewBox="0 0 48 48" fill="none" xmlns="http://www.w3.org/2000/svg">
<path fill-rule="evenodd" clip-rule="evenodd" d="M23.9997 3.99991C23.9537 3.99991 23.9088 4.00711 23.8628 4.00771C23.5288 4.01251 23.1948 4.02881 22.8608 4.05851C15.8829 4.6495 10.5179 10.4828 10.5139 17.4853C10.5129 24.9333 16.5518 30.9722 23.9997 30.9722C31.4477 30.9722 37.4846 24.9333 37.4836 17.4853C37.4776 12.3924 34.6016 7.73826 30.0507 5.45249C28.9237 4.9096 28.4817 4.7496 27.0567 4.36671C26.0617 4.13141 25.0447 4.00881 24.0227 4.00341C24.0167 4.00331 24.0057 3.99951 23.9997 3.99951V3.99991ZM22.3088 9.89634C22.7878 9.85414 25.1197 10.3188 25.7127 12.8398C26.5037 17.1507 34.7996 9.68614 35.9976 15.1948C36.1436 15.9488 36.2166 16.7148 36.2186 17.4857C36.2186 24.2347 30.7487 29.7076 23.9997 29.7086C17.2498 29.7086 11.7769 24.2357 11.7769 17.4857C11.8379 16.5838 12.1379 13.2168 12.9279 15.1018C14.5629 17.9837 16.7168 13.4828 18.4018 12.9858C19.4428 12.6798 20.7108 14.1728 20.3068 13.2168C18.9068 9.90804 22.5508 10.4768 22.0658 13.7268C23.8288 12.8348 23.5838 12.0698 22.3088 9.89634ZM19.3108 15.9608C18.6118 15.9598 18.0468 16.5258 18.0468 17.2247C18.0458 17.9237 18.6108 18.4887 19.3108 18.4877C20.0088 18.4877 20.5748 17.9227 20.5738 17.2247C20.5738 16.5268 20.0078 15.9618 19.3108 15.9608ZM28.5287 15.9608C27.8307 15.9598 27.2637 16.5258 27.2637 17.2247C27.2627 17.9237 27.8297 18.4887 28.5287 18.4877C29.2277 18.4877 29.7937 17.9227 29.7927 17.2247C29.7917 16.5268 29.2267 15.9618 28.5287 15.9608ZM19.9838 22.7617C19.7758 22.7797 19.5878 22.9837 19.6148 23.3157C19.7858 24.9826 21.7298 26.2726 24.0697 26.2746C26.4127 26.2736 28.3557 24.9836 28.5267 23.3157C27.5407 24.7097 25.9977 25.6196 24.0697 25.6596C22.2048 25.6586 20.6468 24.6417 20.4788 23.3157C20.4218 22.9077 20.1928 22.7417 19.9838 22.7617ZM4 34.0155V44.0154H43.9975V34.0155H4ZM7.70305 35.3455C8.47814 35.3455 9.07004 35.6015 9.48043 36.1125C9.89073 36.6205 10.1019 37.3515 10.1109 38.3065V39.6145C10.1109 40.5985 9.90703 41.3514 9.49993 41.8724C9.09284 42.3934 8.49774 42.6534 7.71285 42.6534C6.93776 42.6534 6.34587 42.3974 5.93548 41.8864C5.52518 41.3744 5.31448 40.6435 5.30468 39.6885V38.3785C5.30468 37.3855 5.50958 36.6315 5.91988 36.1165C6.33347 35.6025 6.92796 35.3455 7.70305 35.3455ZM28.8258 35.3455C29.6008 35.3455 30.1948 35.6015 30.6048 36.1125C31.0158 36.6205 31.2248 37.3515 31.2338 38.3065V39.6145C31.2338 40.5985 31.0318 41.3514 30.6248 41.8724C30.2178 42.3934 29.6208 42.6534 28.8358 42.6534C28.0608 42.6534 27.4688 42.3974 27.0588 41.8864C26.6478 41.3744 26.4378 40.6435 26.4278 39.6885V38.3785C26.4278 37.3855 26.6328 36.6315 27.0428 36.1165C27.4568 35.6025 28.0508 35.3455 28.8258 35.3455ZM23.9799 35.4335H24.1308V42.5564H22.7209V37.1125L21.0349 37.6365V36.4875L23.9799 35.4335ZM11.689 35.4425H15.676V36.6205H12.848L12.672 38.1495C13.007 37.9705 13.362 37.8805 13.74 37.8805C14.418 37.8805 14.95 38.0915 15.334 38.5115C15.718 38.9315 15.91 39.5195 15.91 40.2745C15.91 40.7345 15.813 41.1464 15.617 41.5114C15.425 41.8724 15.149 42.1534 14.787 42.3544C14.426 42.5534 13.998 42.6534 13.506 42.6534C13.076 42.6534 12.679 42.5664 12.311 42.3944C11.943 42.2184 11.65 41.9734 11.436 41.6574C11.224 41.3414 11.111 40.9814 11.098 40.5775H12.496C12.525 40.8734 12.627 41.1044 12.803 41.2704C12.982 41.4334 13.215 41.5154 13.502 41.5154C13.821 41.5154 14.068 41.4014 14.24 41.1734C14.413 40.9424 14.498 40.6165 14.498 40.1965C14.498 39.7925 14.4 39.4825 14.201 39.2675C14.003 39.0525 13.72 38.9445 13.355 38.9445C13.02 38.9445 12.747 39.0325 12.539 39.2085L12.402 39.3355L11.279 39.0585L11.689 35.4425ZM31.7188 35.4425H33.3257L34.7967 38.6475L36.2747 35.4425H37.8787L35.5427 39.9765V42.5564H34.0527V39.9765L31.7188 35.4425ZM7.70305 36.4875C7.37086 36.4875 7.12436 36.6175 6.96476 36.8745C6.80846 37.1285 6.72657 37.5275 6.71677 38.0715V39.8005C6.71677 40.3795 6.79476 40.8115 6.95116 41.0954C7.11076 41.3754 7.36436 41.5154 7.71285 41.5154C8.05805 41.5154 8.30785 41.3794 8.46084 41.1084C8.61394 40.8385 8.69264 40.4255 8.69914 39.8685V38.1795C8.69914 37.5895 8.61784 37.1615 8.45504 36.8945C8.29545 36.6235 8.04505 36.4875 7.70305 36.4875ZM28.8258 36.4875C28.4938 36.4875 28.2468 36.6175 28.0878 36.8745C27.9318 37.1285 27.8498 37.5275 27.8398 38.0715V39.8005C27.8398 40.3795 27.9178 40.8115 28.0738 41.0954C28.2338 41.3754 28.4868 41.5154 28.8358 41.5154C29.1808 41.5154 29.4308 41.3794 29.5838 41.1084C29.7368 40.8385 29.8158 40.4255 29.8218 39.8685V38.1795C29.8218 37.5895 29.7408 37.1615 29.5778 36.8945C29.4188 36.6235 29.1678 36.4875 28.8258 36.4875ZM40.1796 37.1715C40.8506 37.1715 41.3866 37.3305 41.7866 37.6455C42.1906 37.9615 42.3926 38.3715 42.3926 38.8765H40.9796C40.9796 38.6745 40.9146 38.5085 40.7846 38.3785C40.6546 38.2445 40.4506 38.1795 40.1736 38.1795C39.9357 38.1795 39.7527 38.2315 39.6227 38.3395C39.4927 38.4465 39.4277 38.5835 39.4277 38.7495C39.4277 38.9055 39.4997 39.0325 39.6457 39.1305C39.7956 39.2245 40.0466 39.3085 40.3976 39.3805C40.7496 39.4485 41.0476 39.5265 41.2886 39.6145C42.0346 39.8885 42.4056 40.3625 42.4056 41.0364C42.4056 41.5184 42.2006 41.9084 41.7866 42.2084C41.3726 42.5044 40.8376 42.6534 40.1836 42.6534C39.7407 42.6534 39.3467 42.5754 39.0017 42.4194C38.6597 42.2594 38.3907 42.0424 38.1947 41.7694C37.9997 41.4924 37.9017 41.1934 37.9017 40.8745H39.2417C39.2547 41.1254 39.3467 41.3194 39.5197 41.4524C39.6917 41.5864 39.9227 41.6514 40.2126 41.6514C40.4826 41.6514 40.6866 41.6024 40.8236 41.5014C40.9636 41.3974 41.0346 41.2614 41.0346 41.0954C41.0346 40.9224 40.9476 40.7865 40.7746 40.6884C40.6056 40.5875 40.3326 40.4995 39.9546 40.4215C38.6977 40.1575 38.0677 39.6225 38.0677 38.8175C38.0677 38.3485 38.2627 37.9585 38.6497 37.6455C39.0407 37.3305 39.5507 37.1715 40.1796 37.1715ZM16.8669 38.9405H19.6169V40.0795H16.8669V38.9405Z" fill="#333333"/>
</svg>

<?xml version="1.0" encoding="UTF-8" standalone="no"?>
<!-- Created with Inkscape (http://www.inkscape.org/) -->
<svg id="svg8" xmlns:rdf="http://www.w3.org/1999/02/22-rdf-syntax-ns#" xmlns="http://www.w3.org/2000/svg" height="48" viewBox="0 0 12.7 12.7" width="48" version="1.1" xmlns:cc="http://creativecommons.org/ns#" xmlns:dc="http://purl.org/dc/elements/1.1/">
 <title id="title4753">UIO-icon</title>
 <metadata id="metadata5">
  <rdf:RDF>
   <cc:Work rdf:about="">
    <dc:format>image/svg+xml</dc:format>
    <dc:type rdf:resource="http://purl.org/dc/dcmitype/StillImage"/>
    <dc:title>UIO-icon</dc:title>
    <dc:creator>
     <cc:Agent>
      <dc:title>Joaquín Urbano</dc:title>
     </cc:Agent>
    </dc:creator>
    <dc:rights>
     <cc:Agent>
      <dc:title>GPL</dc:title>
     </cc:Agent>
    </dc:rights>
   </cc:Work>
  </rdf:RDF>
 </metadata>
 <path id="rect4852" d="m24 4c-0.046 0-0.091 0.0072-0.137 0.0078-0.334 0.0048-0.668 0.0211-1.002 0.0508-6.978 0.591-12.343 6.4244-12.347 13.427-0.001 7.448 6.038 13.487 13.486 13.487s13.485-6.039 13.484-13.487c-0.006-5.093-2.882-9.7472-7.433-12.033-1.127-0.5429-1.569-0.7029-2.994-1.0858-0.995-0.2353-2.012-0.3579-3.034-0.3633-0.006-0.0001-0.017-0.0039-0.023-0.0039zm-1.691 5.8965c0.479-0.0422 2.811 0.4225 3.404 2.9435 0.791 4.311 9.087-3.1537 10.285 2.355 0.146 0.754 0.219 1.52 0.221 2.291 0 6.749-5.47 12.222-12.219 12.223-6.75 0-12.223-5.473-12.223-12.223 0.061-0.902 0.361-4.269 1.151-2.384 1.635 2.882 3.789-1.619 5.474-2.116 1.041-0.306 2.309 1.187 1.905 0.231-1.4-3.3088 2.244-2.74 1.759 0.51 1.763-0.892 1.518-1.657 0.243-3.8305zm-2.998 6.0645c-0.699-0.001-1.264 0.565-1.264 1.264-0.001 0.699 0.564 1.264 1.264 1.263 0.698 0 1.264-0.565 1.263-1.263 0-0.698-0.566-1.263-1.263-1.264zm9.218 0c-0.698-0.001-1.265 0.565-1.265 1.264-0.001 0.699 0.566 1.264 1.265 1.263 0.699 0 1.265-0.565 1.264-1.263s-0.566-1.263-1.264-1.264zm-8.545 6.801c-0.208 0.018-0.396 0.222-0.369 0.554 0.171 1.667 2.115 2.957 4.455 2.959 2.343-0.001 4.286-1.291 4.457-2.959-0.986 1.394-2.529 2.304-4.457 2.344-1.865-0.001-3.423-1.018-3.591-2.344-0.057-0.408-0.286-0.574-0.495-0.554zm-15.984 11.254v10h39.998v-10h-39.998zm3.7031 1.33c0.7751 0 1.367 0.256 1.7774 0.767 0.4103 0.508 0.6215 1.239 0.6305 2.194v1.308c0 0.984-0.2039 1.737-0.611 2.258s-1.0022 0.781-1.7871 0.781c-0.7751 0-1.367-0.256-1.7774-0.767-0.4103-0.512-0.621-1.243-0.6308-2.198v-1.31c0-0.993 0.2049-1.747 0.6152-2.262 0.4136-0.514 1.0081-0.771 1.7832-0.771zm21.123 0c0.775 0 1.369 0.256 1.779 0.767 0.411 0.508 0.62 1.239 0.629 2.194v1.308c0 0.984-0.202 1.737-0.609 2.258s-1.004 0.781-1.789 0.781c-0.775 0-1.367-0.256-1.777-0.767-0.411-0.512-0.621-1.243-0.631-2.198v-1.31c0-0.993 0.205-1.747 0.615-2.262 0.414-0.514 1.008-0.771 1.783-0.771zm-4.846 0.088h0.151v7.123h-1.41v-5.444l-1.686 0.524v-1.149l2.945-1.054zm-12.291 0.009h3.987v1.178h-2.828l-0.176 1.529c0.335-0.179 0.69-0.269 1.068-0.269 0.678 0 1.21 0.211 1.594 0.631s0.576 1.008 0.576 1.763c0 0.46-0.097 0.872-0.293 1.237-0.192 0.361-0.468 0.642-0.83 0.843-0.361 0.199-0.789 0.299-1.281 0.299-0.43 0-0.827-0.087-1.195-0.259-0.368-0.176-0.661-0.421-0.875-0.737-0.212-0.316-0.325-0.676-0.338-1.08h1.398c0.029 0.296 0.131 0.527 0.307 0.693 0.179 0.163 0.412 0.245 0.699 0.245 0.319 0 0.566-0.114 0.738-0.342 0.173-0.231 0.258-0.557 0.258-0.977 0-0.404-0.098-0.714-0.297-0.929-0.198-0.215-0.481-0.323-0.846-0.323-0.335 0-0.608 0.088-0.816 0.264l-0.137 0.127-1.123-0.277 0.41-3.616zm20.03 0h1.607l1.471 3.205 1.478-3.205h1.604l-2.336 4.534v2.58h-1.49v-2.58l-2.334-4.534zm-24.016 1.045c-0.3322 0-0.5787 0.13-0.7383 0.387-0.1563 0.254-0.2382 0.653-0.248 1.197v1.729c0 0.579 0.078 1.011 0.2344 1.295 0.1596 0.28 0.4132 0.42 0.7617 0.42 0.3452 0 0.595-0.136 0.748-0.407 0.1531-0.27 0.2318-0.683 0.2383-1.24v-1.689c0-0.59-0.0813-1.018-0.2441-1.285-0.1596-0.271-0.41-0.407-0.752-0.407zm21.123 0c-0.332 0-0.579 0.13-0.738 0.387-0.156 0.254-0.238 0.653-0.248 1.197v1.729c0 0.579 0.078 1.011 0.234 1.295 0.16 0.28 0.413 0.42 0.762 0.42 0.345 0 0.595-0.136 0.748-0.407 0.153-0.27 0.232-0.683 0.238-1.24v-1.689c0-0.59-0.081-1.018-0.244-1.285-0.159-0.271-0.41-0.407-0.752-0.407zm11.354 0.684c0.671 0 1.207 0.159 1.607 0.474 0.404 0.316 0.606 0.726 0.606 1.231h-1.413c0-0.202-0.065-0.368-0.195-0.498-0.13-0.134-0.334-0.199-0.611-0.199-0.238 0-0.421 0.052-0.551 0.16-0.13 0.107-0.195 0.244-0.195 0.41 0 0.156 0.072 0.283 0.218 0.381 0.15 0.094 0.401 0.178 0.752 0.25 0.352 0.068 0.65 0.146 0.891 0.234 0.746 0.274 1.117 0.748 1.117 1.422 0 0.482-0.205 0.872-0.619 1.172-0.414 0.296-0.949 0.445-1.603 0.445-0.443 0-0.837-0.078-1.182-0.234-0.342-0.16-0.611-0.377-0.807-0.65-0.195-0.277-0.293-0.576-0.293-0.895h1.34c0.013 0.251 0.105 0.445 0.278 0.578 0.172 0.134 0.403 0.199 0.693 0.199 0.27 0 0.474-0.049 0.611-0.15 0.14-0.104 0.211-0.24 0.211-0.406 0-0.173-0.087-0.309-0.26-0.407-0.169-0.101-0.442-0.189-0.82-0.267-1.257-0.264-1.887-0.799-1.887-1.604 0-0.469 0.195-0.859 0.582-1.172 0.391-0.315 0.901-0.474 1.53-0.474zm-23.313 1.769h2.75v1.139h-2.75v-1.139z" fill-rule="evenodd" transform="scale(.26458)" stroke-width="3.7795" fill="#333"/>
</svg>
